svg/u2618.svg

<svg viewBox="0 0 128 128" xmlns="http://www.w3.org/2000/svg">
  <path d="M70.35,64.45l-6.17-2.49l-6.84,4.52c0,0,1.79,1.57,1.79,3.79c0,2.22-1.28,17.46-0.03,27.49 c1.11,8.88,4.16,15.27,6.8,18.74c2.64,3.47,7.91,7.22,9.44,7.22c1.53,0,5.14-2.91,6.38-6.94c1.25-4.03-7.22-2.78-7.22-2.78 s-6.44-3.54-8.05-15.54c-1.24-9.2-0.79-19.56-0.69-23.46C65.91,69.17,70.35,64.45,70.35,64.45z" fill="#65A21B"/>
  <path d="M28.91,34.59c0,0,1.43-4.12-5.65-3.15c-2.94,0.4-11.34,2.76-12.5,12.41 c-0.97,8.05,3.67,12.07,3.52,14.08c-0.19,2.68-8.52,6.57-7.63,17.63c0.85,10.5,10.92,14.32,15.78,12.65 C31.31,85.15,28.91,34.59,28.91,34.59z" fill="#65A21B"/>
  <path d="M54.81,26.29c0,0-9.04-12.59-5.99-16.61c2.55-3.36,6.32-6.01,12.87-5.74 c9.08,0.37,12.22,8.33,14.07,8.61c0.85,0.13,6.66-4.86,14.99-2.91s9.58,9.16,9.99,11.1S54.81,26.29,54.81,26.29z" fill="#65A21B"/>
  <path d="M100.47,58.62c0,0,13.32-12.91,16.38-10.27c3.05,2.64,4.99,7.63,4.58,11.94 c-0.83,8.74-5.55,9.99-5.41,11.1s3.33,1.8,3.19,10.13c-0.12,7.17-7.05,15.41-16.62,16.1C93.01,98.32,97.7,63.21,100.47,58.62z" fill="#65A21B"/>
  <path d="M60.12,57.46c2.07-1.66-1.01-3.28-4.06-7.16C53,46.41,44.82,35.74,44.68,22.95 c-0.07-5.97,1.94-10.55,4.22-13.39c2.09-2.61,5.83-2.66,8.27-2.43c11.8,1.11,14.34,14.08,16.79,14.57c2.08,0.42,9.1-9.08,20.14-7.31 c7.5,1.2,9.86,12.6,3.98,21.11c-6.8,9.85-18.57,17.04-22.32,18.98c-3.75,1.94-4.58,2.87-3.89,4.54c0.69,1.67,3.21-0.15,5.41-1.8 c8.74-6.52,18.6-12.77,26.09-13.05s11.8,2.22,13.46,4.16c1.67,1.94,2.36,9.02,0,13.6c-2.33,4.53-8.33,7.77-8.47,8.88 c-0.14,1.11,5.69,5.97,4.72,14.85c-0.64,5.82-3.75,9.58-5.83,10.96c-2.08,1.39-10.87,2.46-17.21-0.83 c-6.94-3.61-14.57-13.32-17.9-18.74c-3.33-5.41-5.7-11.05-9.02-11.24c-4.86-0.28-10.55,9.99-23.32,17.07 c-9.53,5.28-17.63,7.08-21.79,5.41c-4.16-1.67-6.36-9.56-5.97-14.71C12.89,62.65,23.3,60.98,23.3,58.9c0-2.08-6.66-6.25-6.11-15.82 c0.47-8.07,4.3-10.96,5.69-11.52c1.39-0.56,10.13-0.97,16.38,3.61s10.83,12.77,13.6,15.96C55.64,54.32,58.04,59.13,60.12,57.46z" fill="#8BC02B"/>
  <path d="M59.36,38.11c0,0-2.47-2.16-4.7-0.41c-1.85,1.45-0.82,5.01,0.72,7.05c1.53,2.04,3.41,3.7,5.42,2.76 c1.98-0.93,1.12-4.7,1.12-4.7s1.53,1.68,3.78,1.64c3.33-0.06,4.6-2.76,4.6-2.76s0,2.04,2.25,3.37c2.25,1.33,4.7,0.31,4.7,0.31 s-1.02,1.94,0.2,3.07c1.23,1.12,2.86,0.31,4.8-2.15c1.94-2.45,2.96-5.01,0.92-6.34c-2.04-1.33-4.7,0.31-4.7,0.31 s1.67-5.34-1.53-6.64c-2.46-1-3.99,1.23-3.99,1.23s-0.82-3.07-3.78-3.07c-2.96,0-3.88,2.86-3.88,2.86s-2.25-2.04-4.19-0.82 S59.36,38.11,59.36,38.11z" fill="#BBD046"/>
  <path d="M80.37,62.13c0.44,2.11,2.33,2.11,2.33,2.11s-1.45,0.15-1.74,1.6s0.29,1.96,0.29,1.96 s-2.4-0.58-3.49,1.31c-0.8,1.38,0,2.76,0,2.76s-1.45-0.22-2.54,1.45c-1.09,1.67,0.87,5.44,3.42,7.41c2.91,2.25,6.63,4.17,8.14,1.45 c1.45-2.62-1.09-5.31-1.09-5.31s2.91,1.02,4.07-1.16c0.92-1.73-0.15-3.2-0.15-3.2s1.16,0.07,1.53-1.53c0.64-2.8-2.54-3.56-2.54-3.56 s5.5,0.37,5.67-4.51c0.15-4.22-5.02-3.85-5.02-3.85s1.55-2.37,0-3.63C85.68,52.53,79.79,59.31,80.37,62.13z" fill="#BBD046"/>
  <path d="M50.71,55.88c0.73-1.53,0.07-3.49-3.05-5.82c-3.32-2.47-5.23-2.4-6.25-1.38 c-1.02,1.02-0.36,2.54-0.36,2.54s-2.11,0.29-2.25,2.11c-0.15,1.82,1.45,2.47,1.45,2.47s-2.47,0.51-2.47,2.91s1.82,3.05,1.82,3.05 s-3.71,1.6-2.54,4.22c1.23,2.76,6.91,2.18,6.91,2.18s-6.4,4.87-3.63,7.85c2.76,2.98,13.08-3.52,10.83-7.63 c-1.31-2.4-3.71-1.53-3.71-1.53s1.53-1.53,1.45-3.34c-0.07-1.82-2.69-2.98-2.69-2.98s1.24-0.65,1.31-1.6 c0.07-0.95-0.8-2.04-0.8-2.04S49.91,57.55,50.71,55.88z" fill="#BBD046"/>
</svg>

<svg viewBox="0 0 128 128" xmlns="http://www.w3.org/2000/svg">
  <defs/>
  <path d="M70.35,64.45 L64.18,61.96 L57.34,66.48 C57.34,66.48 59.13,68.05 59.13,70.27 C59.13,72.49 57.85,87.73 59.1,97.76 C60.21,106.64 63.26,113.03 65.9,116.5 C68.54,119.97 73.81,123.72 75.34,123.72 C76.87,123.72 80.48,120.81 81.72,116.78 C82.97,112.75 74.5,114 74.5,114 C74.5,114 68.06,110.46 66.45,98.46 C65.21,89.26 65.66,78.9 65.76,75 C65.91,69.17 70.35,64.45 70.35,64.45 Z" fill="#65A21B"/>
  <path d="M28.91,34.59 C28.91,34.59 30.34,30.47 23.26,31.44 C20.32,31.84 11.92,34.2 10.76,43.85 C9.79,51.9 14.43,55.92 14.28,57.93 C14.09,60.61 5.76,64.5 6.65,75.56 C7.5,86.06 17.57,89.88 22.43,88.21 C31.31,85.15 28.91,34.59 28.91,34.59 Z" fill="#65A21B"/>
  <path d="M54.81,26.29 C54.81,26.29 45.77,13.7 48.82,9.68 C51.37,6.32 55.14,3.67 61.69,3.94 C70.77,4.31 73.91,12.27 75.76,12.55 C76.61,12.68 82.42,7.69 90.75,9.64 C99.08,11.59 100.33,18.8 100.74,20.74 C101.15,22.68 54.81,26.29 54.81,26.29 Z" fill="#65A21B"/>
  <path d="M100.47,58.62 C100.47,58.62 113.79,45.71 116.85,48.35 C119.9,50.99 121.84,55.98 121.43,60.29 C120.6,69.03 115.88,70.28 116.02,71.39 C116.16,72.5 119.35,73.19 119.21,81.52 C119.09,88.69 112.16,96.93 102.59,97.62 C93.01,98.32 97.7,63.21 100.47,58.62 Z" fill="#65A21B"/>
  <path d="M60.12,57.46 C62.19,55.8 59.11,54.18 56.06,50.3 C53,46.41 44.82,35.74 44.68,22.95 C44.61,16.98 46.62,12.4 48.9,9.56 C50.99,6.95 54.73,6.9 57.17,7.13 C68.97,8.24 71.51,21.21 73.96,21.7 C76.04,22.12 83.06,12.62 94.1,14.39 C101.6,15.59 103.96,26.99 98.08,35.5 C91.28,45.35 79.51,52.54 75.76,54.48 C72.01,56.42 71.18,57.35 71.87,59.02 C72.56,60.69 75.08,58.87 77.28,57.22 C86.02,50.7 95.88,44.45 103.37,44.17 C110.86,43.89 115.17,46.39 116.83,48.33 C118.5,50.27 119.19,57.35 116.83,61.93 C114.5,66.46 108.5,69.7 108.36,70.81 C108.22,71.92 114.05,76.78 113.08,85.66 C112.44,91.48 109.33,95.24 107.25,96.62 C105.17,98.01 96.38,99.08 90.04,95.79 C83.1,92.18 75.47,82.47 72.14,77.05 C68.81,71.64 66.44,66 63.12,65.81 C58.26,65.53 52.57,75.8 39.8,82.88 C30.27,88.16 22.17,89.96 18.01,88.29 C13.85,86.62 11.65,78.73 12.04,73.58 C12.89,62.65 23.3,60.98 23.3,58.9 C23.3,56.82 16.64,52.65 17.19,43.08 C17.66,35.01 21.49,32.12 22.88,31.56 C24.27,31 33.01,30.59 39.26,35.17 C45.51,39.75 50.09,47.94 52.86,51.13 C55.64,54.32 58.04,59.13 60.12,57.46 Z" fill="#8BC02B"/>
  <path d="M59.36,38.11 C59.36,38.11 56.89,35.95 54.66,37.7 C52.81,39.15 53.84,42.71 55.38,44.75 C56.91,46.79 58.79,48.45 60.8,47.51 C62.78,46.58 61.92,42.81 61.92,42.81 C61.92,42.81 63.45,44.49 65.7,44.45 C69.03,44.39 70.3,41.69 70.3,41.69 C70.3,41.69 70.3,43.73 72.55,45.06 C74.8,46.39 77.25,45.37 77.25,45.37 C77.25,45.37 76.23,47.31 77.45,48.44 C78.68,49.56 80.31,48.75 82.25,46.29 C84.19,43.84 85.21,41.28 83.17,39.95 C81.13,38.62 78.47,40.26 78.47,40.26 C78.47,40.26 80.14,34.92 76.94,33.62 C74.48,32.62 72.95,34.85 72.95,34.85 C72.95,34.85 72.13,31.78 69.17,31.78 C66.21,31.78 65.29,34.64 65.29,34.64 C65.29,34.64 63.04,32.6 61.1,33.82 C59.16,35.04 59.36,38.11 59.36,38.11 Z" fill="#BBD046"/>
  <path d="M80.37,62.13 C80.81,64.24 82.7,64.24 82.7,64.24 C82.7,64.24 81.25,64.39 80.96,65.84 C80.67,67.29 81.25,67.8 81.25,67.8 C81.25,67.8 78.85,67.22 77.76,69.11 C76.96,70.49 77.76,71.87 77.76,71.87 C77.76,71.87 76.31,71.65 75.22,73.32 C74.13,74.99 76.09,78.76 78.64,80.73 C81.55,82.98 85.27,84.9 86.78,82.18 C88.23,79.56 85.69,76.87 85.69,76.87 C85.69,76.87 88.6,77.89 89.76,75.71 C90.68,73.98 89.61,72.51 89.61,72.51 C89.61,72.51 90.77,72.58 91.14,70.98 C91.78,68.18 88.6,67.42 88.6,67.42 C88.6,67.42 94.1,67.79 94.27,62.91 C94.42,58.69 89.25,59.06 89.25,59.06 C89.25,59.06 90.8,56.69 89.25,55.43 C85.68,52.53 79.79,59.31 80.37,62.13 Z" fill="#BBD046"/>
  <path d="M50.71,55.88 C51.44,54.35 50.78,52.39 47.66,50.06 C44.34,47.59 42.43,47.66 41.41,48.68 C40.39,49.7 41.05,51.22 41.05,51.22 C41.05,51.22 38.94,51.51 38.8,53.33 C38.65,55.15 40.25,55.8 40.25,55.8 C40.25,55.8 37.78,56.31 37.78,58.71 C37.78,61.11 39.6,61.76 39.6,61.76 C39.6,61.76 35.89,63.36 37.06,65.98 C38.29,68.74 43.97,68.16 43.97,68.16 C43.97,68.16 37.57,73.03 40.34,76.01 C43.1,78.99 53.42,72.49 51.17,68.38 C49.86,65.98 47.46,66.85 47.46,66.85 C47.46,66.85 48.99,65.32 48.91,63.51 C48.84,61.69 46.22,60.53 46.22,60.53 C46.22,60.53 47.46,59.88 47.53,58.93 C47.6,57.98 46.73,56.89 46.73,56.89 C46.73,56.89 49.91,57.55 50.71,55.88 Z" fill="#BBD046"/>
</svg>
